share/.local/share/icons/Papirus-Nordic/32x32/apps/retroarch.svg

<svg xmlns="http://www.w3.org/2000/svg" width="32" height="32" version="1">
 <rect style="opacity:0.2" width="28" height="28" x="2" y="3" rx="1.4" ry="1.4"/>
 <rect style="fill:#e4e4e4" width="28" height="28" x="2" y="2" rx="1.4" ry="1.4"/>
 <path style="fill:#565656" d="M 11,9 13,12 9,12 8.5,14 6,14 6.5,11 5,11 4,17 5.4117647,17 7.6,17 7,19 l 3.5,0 -2.5,3 3,0 2,-3 6,0 2,3 3,0 -2.5,-3 3.5,0 -0.6,-2 3.6,0 -1,-6 -1.5,0 0.5,3 -2.5,0 -0.5,-2 -4,0 2,-3 -1.5,0 -2,3 -3,0 -2,-3 z"/>
 <path style="opacity:0.2" d="m 11,15 0,2 2,0 0,-2 -2,0 z"/>
 <path style="opacity:0.2" d="m 19,15 0,2 2,0 0,-2 -2,0 z"/>
 <path style="fill:#ffffff" d="m 19,14 0,2 2,0 0,-2 -2,0 z"/>
 <path style="fill:#ffffff;opacity:0.2" d="M 3.4003906 2 C 2.6247906 2 2 2.6247906 2 3.4003906 L 2 4.4003906 C 2 3.6247906 2.6247906 3 3.4003906 3 L 28.599609 3 C 29.375209 3 30 3.6247906 30 4.4003906 L 30 3.4003906 C 30 2.6247906 29.375209 2 28.599609 2 L 3.4003906 2 z"/>
 <path style="fill:#ffffff" d="m 11,14 0,2 2,0 0,-2 -2,0 z"/>
</svg>

<svg xmlns="http://www.w3.org/2000/svg" width="32" height="32" version="1">
 <rect style="opacity:0.2" width="28" height="28" x="2" y="3" rx="4.2" ry="4.2"/>
 <rect style="fill:#3f3f3f" width="28" height="28" x="2" y="2" rx="4.2" ry="4.2"/>
 <path style="opacity:0.2" d="m 11,10 2,3 H 9 L 8.5,15 H 6 L 6.5,12 H 5 l -1,6 h 1.4121094 2.1875 L 7,20 h 3.5 L 8,23 h 3 l 2,-3 h 6 l 2,3 h 3 L 21.5,20 H 25 L 24.400391,18 H 28 L 27,12 H 25.5 L 26,15 H 23.5 L 23,13 h -4 l 2,-3 h -1.5 l -2,3 h -3 l -2,-3 z m 0,5 h 2 v 2 h -2 z m 8,0 h 2 v 2 h -2 z"/>
 <path style="fill:#ffffff" d="M 11 9 L 13 12 L 9 12 L 8.5 14 L 6 14 L 6.5 11 L 5 11 L 4 17 L 5.4121094 17 L 7.5996094 17 L 7 19 L 10.5 19 L 8 22 L 11 22 L 13 19 L 19 19 L 21 22 L 24 22 L 21.5 19 L 25 19 L 24.400391 17 L 28 17 L 27 11 L 25.5 11 L 26 14 L 23.5 14 L 23 12 L 19 12 L 21 9 L 19.5 9 L 17.5 12 L 14.5 12 L 12.5 9 L 11 9 z M 11 14 L 13 14 L 13 16 L 11 16 L 11 14 z M 19 14 L 21 14 L 21 16 L 19 16 L 19 14 z"/>
 <path style="fill:#ffffff;opacity:0.1" d="M 6.1992188 2 C 3.8724189 2 2 3.8724189 2 6.1992188 L 2 7.1992188 C 2 4.8724189 3.8724189 3 6.1992188 3 L 25.800781 3 C 28.127581 3 30 4.8724189 30 7.1992188 L 30 6.1992188 C 30 3.8724189 28.127581 2 25.800781 2 L 6.1992188 2 z"/>
</svg>
